X:4
T:Scottish \`a Virmoux
C:Trad.
M:C|
R:scottische
K:D
DAGF A3F|GFGA B2A2|AdAF G2FE|[1 FAFD E4:|[2 DAGF D4:|
|:d2A2 d3c|BABc dedB|A2D2 A2GF|[1 EFGA BABc:|[2 EFGA D4:|

